X:1
T:Title
%%score { 1 | 2 }
L:1/8
M:4/4
K:Ab
V:1 treble nm="Grand Piano"
V:2 bass 
V:1
 z4 z2 z[Q:1/4=112] [Ec] | [Ae]2 [Ec]2 [Ec]2 [DB]2 | [CA]2 [Ec]4 [CEA]2 | [FB]2 [FA]2 [FA]2 [DF]2 | %4
 [CE]6 [CE][CF] |[M:2/4] [DA]2 [FA]2 | [EG]2 [DF]2 |[M:4/4] [CE]2 [Ec]4 [Ec]2 | %8
 [Ec]2 [=DB]2 [DB]2 [Dc]2 | [DB]6 [Ec]2 | [Ae]2 [Ec]2 [Ec]2 [DB]2 | [CA]2 [Ec]4 [CEA]2 | %12
 [FB]2 [FA]2 [FA]2 [DF]2 |[M:3/4] [CE]6 |[M:1/4] [DF][EG] |[M:4/4] [CA]2 [CA]2 [CA]3 [CE] | %16
[M:19/16] A-<AA-<AA/-A/-A/-A/-A/-A-<A[Ec] |[M:5/4] c3 A3 G B3 |[M:3/4] [CA]6 |[M:1/4] e2 | %20
[M:4/4] e2 c2 [Ec]2 [DB]2 | [CA]6 [Ec]2 | [FB]2 [FA]2 [FA]2 [DF]2 | [CE]6 [CF][DG] | %24
 [CA]2 [CA]2 [CA]2 [DF][CE] |[M:2/4] A2 A2 | A2 c2 |[M:4/4] [Fc]2 [AB]2 [FB]2 [=Dc]2 | %28
[M:9/8] [EB]6 [Ge]3 |[M:4/4] e2 c2 c2 B2 | A6 [Ec]2 | [FB]2 [FA]2 [FA]2 [DF]2 |[M:3/4] [CE]6 | %33
[M:1/4] [DF][EG] |[M:4/4] [CA]2 [CA]2 [CA]3 [CE] |[M:19/16] A-<AA-<AA/-A/-A/-A/-A/-A-<A[Ec] | %36
[M:5/4] c3 A3 G B3 |[M:7/4] [CA]6 z2 z2 z4 |] %38
V:2
 z4 z2 z [A,,A,] | [A,,C]2 [A,,A,]2 [A,,A,]2 [A,,E,]2 | [A,,E,]2 [A,,A,]4 A,,2 | %3
 [D,D]2 [D,D]2 [D,D]2 [D,A,]2 | [A,,A,]6 [A,,A,]2 |[M:2/4] [D,F,]2 [D,A,]2 | [C,A,]2 [D,A,]2 | %7
[M:4/4] [A,,A,]2 [A,,A,]4 [A,,A,]2 | [B,,A,]2 [B,,F,]2 [B,,F,]2 [B,,A,]2 | [E,G,]6 [A,,A,]2 | %10
 [A,,C]2 [A,,A,]2 [A,,A,]2 [A,,E,]2 | [A,,E,]2 [A,,A,]4 A,,2 | [D,D]2 [D,D]2 [D,D]2 [D,A,]2 | %13
[M:3/4] [A,,A,]6 |[M:1/4] [A,,A,]2 |[M:4/4] [A,,E,]2 [A,,E,]2 [A,,E,]3 [A,,A,] | %16
[M:19/16] [F,A,C]-<[F,A,C][F,A,C]-<[F,A,C][F,A,C]/-[F,A,C]/-[F,A,C]/-[F,A,C]/-[F,A,C]/-[F,A,C]-<[F,A,C][C,A,] | %17
[M:5/4] [E,A,E]3 [E,CE]3 [E,B,D] [E,G,D]3 |[M:3/4] [A,,A,]6 |[M:1/4][K:treble] [A,CA]2 | %20
[M:4/4] [A,CA]2[K:bass] [A,E]2 [A,,A,]2 [A,,E,]2 | [A,,E,]6 [A,,A,]2 | %22
 [D,A,]2 [D,D]2 [D,D]2 [D,A,]2 | [A,,A,]6 [A,,A,][A,,A,] | %24
 [A,,E,]2 [A,,E,]2 [A,,E,]2 [A,,A,][A,,A,] |[M:2/4] [F,A,C]2 [F,A,C]2 | [F,A,C]2 [F,A,F]2 | %27
[M:4/4] [B,,A,]2 [B,,F,]2 [B,,A,]2 [B,,A,]2 |[M:9/8] [E,G,]6 [E,B,]3 | %29
[M:4/4][K:treble] [A,CA]2 [A,E]2[K:bass] [E,A,E]2 [=E,G,D]2 | [F,A,C]6 [C,A,]2 | %31
 [D,A,]2 [D,D]2 [D,D]2 [D,A,]2 |[M:3/4] [A,,A,]6 |[M:1/4] [A,,A,]2 | %34
[M:4/4] [A,,E,]2 [A,,E,]2 [A,,E,]3 [A,,A,] | %35
[M:19/16] [F,A,C]-<[F,A,C][F,A,C]-<[F,A,C][F,A,C]/-[F,A,C]/-[F,A,C]/-[F,A,C]/-[F,A,C]/-[F,A,C]-<[F,A,C][C,A,] | %36
[M:5/4] [E,A,E]3 [E,CE]3 [E,B,D] [E,G,D]3 |[M:7/4] [A,,A,]6 z2 z2 z4 |] %38

